exports/secondhand-smoke-deaths-by-age_v1_850x600.svg

<svg xmlns="http://www.w3.org/2000/svg" version="1.1" style="background-color:#fff;-webkit-font-smoothing:antialiased" width="850" height="600" font-family="'Helvetica Neue',Helvetica,Arial,sans-serif" font-size="18" text-rendering="optimizeLegibility"><g class="ChartTab"><g class="HeaderView"><g opacity=".8" transform="matrix(.31 0 0 .31 770 15)"><a xmlns:xlink="http://www.w3.org/1999/xlink" xlink:href="https://ourworldindata.org" target="_blank"><g><path fill="#1B2543" d="M0 0h211.2v130.1H0z"/><path fill="#E63912" d="M0 112.2h211.2v17.9H0z"/><g><path fill="none" d="M1.2 12.3h210.2v99.2H1.2z"/><path fill="#FFF" d="M37.8 32.2c0 12.7-7.7 19.4-17.1 19.4-9.7 0-16.6-7.5-16.6-18.7 0-11.7 7.3-19.3 17.1-19.3 10.1.1 16.6 7.7 16.6 18.6zm-28.6.6c0 7.9 4.3 14.9 11.8 14.9 7.5 0 11.8-6.9 11.8-15.3 0-7.3-3.8-14.9-11.8-14.9-7.9 0-11.8 7.3-11.8 15.3zM62.7 43.8c0 2.7.1 5.1.2 7.2h-4.3l-.3-4.3h-.1c-1.3 2.1-4 4.9-8.8 4.9-4.2 0-9.1-2.3-9.1-11.6V24.6h4.8v14.6c0 5 1.5 8.4 5.9 8.4 3.2 0 5.5-2.2 6.3-4.4.3-.7.4-1.6.4-2.5V24.6h4.8v19.2zM67.3 32.8c0-3.1-.1-5.8-.2-8.2h4.2l.2 5.2h.2c1.2-3.5 4.1-5.8 7.3-5.8.5 0 .9.1 1.4.2v4.5c-.5-.1-1-.2-1.6-.2-3.4 0-5.8 2.6-6.5 6.2-.1.7-.2 1.4-.2 2.2V51h-4.8V32.8zM95.4 51L86 14.2h5l4.4 18.6c1.1 4.6 2.1 9.2 2.7 12.7h.1c.6-3.7 1.8-8 3-12.8l4.9-18.5h5l4.5 18.7c1 4.4 2 8.7 2.6 12.6h.1c.8-4 1.8-8.1 3-12.7l4.9-18.5h4.9L120.6 51h-5L111 31.9c-1.1-4.7-1.9-8.3-2.4-12h-.1c-.7 3.7-1.5 7.3-2.8 12L100.4 51h-5zM154.9 37.6c0 9.8-6.8 14-13.2 14-7.2 0-12.7-5.2-12.7-13.6 0-8.8 5.8-14 13.1-14 7.7 0 12.8 5.5 12.8 13.6zm-21 .3c0 5.8 3.3 10.1 8 10.1 4.6 0 8-4.3 8-10.3 0-4.5-2.2-10.1-7.9-10.1s-8.1 5.2-8.1 10.3zM158.2 32.8c0-3.1-.1-5.8-.2-8.2h4.2l.2 5.2h.2c1.2-3.5 4.1-5.8 7.3-5.8.5 0 .9.1 1.4.2v4.5c-.5-.1-1-.2-1.6-.2-3.4 0-5.8 2.6-6.5 6.2-.1.7-.2 1.4-.2 2.2V51h-4.8V32.8zM173.5 12.3h4.8V51h-4.8V12.3zM206.5 12.3v31.9c0 2.3.1 5 .2 6.8h-4.3l-.2-4.6h-.2c-1.5 2.9-4.7 5.2-9 5.2-6.4 0-11.3-5.4-11.3-13.4-.1-8.8 5.4-14.2 11.9-14.2 4 0 6.8 1.9 8 4h.1V12.3h4.8zm-4.8 23.1c0-.6-.1-1.4-.2-2a7 7 0 00-6.9-5.6c-5 0-7.9 4.4-7.9 10.2 0 5.3 2.6 9.8 7.8 9.8 3.2 0 6.2-2.1 7.1-5.7.2-.7.2-1.3.2-2.1v-4.6zM42.8 64c.1 1.6-1.1 2.9-3.1 2.9-1.7 0-2.9-1.3-2.9-2.9 0-1.7 1.3-3 3-3 1.9 0 3 1.3 3 3zm-5.4 33.8V71.4h4.8v26.4h-4.8zM47.5 78.6c0-2.7-.1-5-.2-7.1h4.3l.3 4.4h.1c1.3-2.5 4.4-5 8.8-5 3.7 0 9.4 2.2 9.4 11.2v15.8h-4.8V82.6c0-4.3-1.6-7.8-6.1-7.8-3.2 0-5.6 2.2-6.5 4.9-.2.6-.3 1.4-.3 2.2v15.9h-4.8V78.6zM84 61.6c2.9-.4 6.3-.8 10.1-.8 6.8 0 11.7 1.6 14.9 4.6 3.3 3 5.2 7.3 5.2 13.2 0 6-1.9 10.9-5.3 14.3-3.4 3.4-9.1 5.3-16.3 5.3-3.4 0-6.2-.2-8.6-.4V61.6zm4.8 32.5c1.2.2 3 .3 4.8.3 10.2 0 15.7-5.7 15.7-15.6.1-8.7-4.9-14.2-14.9-14.2-2.5 0-4.3.2-5.6.5v29zM132.1 97.8l-.4-3.3h-.2a9.79 9.79 0 01-8.1 3.9c-5.4 0-8.1-3.8-8.1-7.6 0-6.4 5.7-9.9 15.9-9.8v-.5c0-2.2-.6-6.1-6-6.1-2.5 0-5 .8-6.9 2l-1.1-3.2c2.2-1.4 5.4-2.3 8.7-2.3 8.1 0 10.1 5.5 10.1 10.8v9.9c0 2.3.1 4.5.4 6.3h-4.3zm-.7-13.4c-5.3-.1-11.2.8-11.2 5.9 0 3.1 2.1 4.6 4.5 4.6 3.4 0 5.6-2.2 6.4-4.4.2-.5.3-1 .3-1.5v-4.6zM146.6 63.9v7.6h6.9v3.7h-6.9v14.2c0 3.3.9 5.1 3.6 5.1 1.3 0 2.2-.2 2.8-.3l.2 3.6c-.9.4-2.4.7-4.3.7-2.2 0-4-.7-5.2-2-1.4-1.4-1.9-3.8-1.9-6.9V75.1h-4.1v-3.7h4.1v-6.3l4.8-1.2zM171.4 97.8l-.4-3.3h-.2a9.79 9.79 0 01-8.1 3.9c-5.4 0-8.1-3.8-8.1-7.6 0-6.4 5.7-9.9 15.9-9.8v-.5c0-2.2-.6-6.1-6-6.1-2.5 0-5 .8-6.9 2l-1.1-3.2c2.2-1.4 5.4-2.3 8.7-2.3 8.1 0 10.1 5.5 10.1 10.8v9.9c0 2.3.1 4.5.4 6.3h-4.3zm-.7-13.4c-5.3-.1-11.2.8-11.2 5.9 0 3.1 2.1 4.6 4.5 4.6 3.4 0 5.6-2.2 6.4-4.4.2-.5.3-1 .3-1.5v-4.6z"/></g></g></a></g><a href="https://ourworldindata.org/grapher/secondhand-smoke-deaths-by-age" target="_blank"><text font-size="27" x="15" y="36.6" fill="#555"><tspan x="15" y="36.6">Secondhand smoke deaths by age, World</tspan></text></a><text font-size="14.4" x="15" y="55.5" fill="#666"><tspan x="15" y="55.52">Annual number of deaths from secondhand smoke (also known as &apos;passive smoking&apos; which is the inhalation of</tspan><tspan x="15" y="71.36">smoke by those who are not &quot;active&quot; smokers) by age group across both sexes.</tspan></text></g><g class="StackedArea"><defs><clipPath id="a"><path d="M78.97 0h820v925.2h-820z"/></clipPath></defs><g class="AxisBoxView"><g class="HorizontalAxis" fill="#666" text-anchor="middle" font-size="16.2"><text x="79" y="556.5">1990</text><text x="201.3" y="556.5">1995</text><text x="323.7" y="556.5">2000</text><text x="446.1" y="556.5">2005</text><text x="568.5" y="556.5">2010</text><text x="715.4" y="556.5">2016</text></g><g class="VerticalAxis" fill="#666" dominant-baseline="middle" text-anchor="end" font-size="16.2"><text x="73.97" y="535.3">0</text><text x="73.97" y="442">200,000</text><text x="73.97" y="348.7">400,000</text><text x="73.97" y="255.4">600,000</text><text x="73.97" y="162">800,000</text></g><g class="AxisGridLines"><path stroke="#ccc" d="M78.97 535.3h636.38"/><path stroke="#ddd" stroke-dasharray="3,2" d="M78.97 442h636.38M78.97 348.7h636.38M78.97 255.4h636.38M78.97 162h636.38"/></g><g class="AxisGridLines" stroke="#ddd" stroke-dasharray="3,2"><path d="M79 535.3V93.9M201.3 535.3V93.9M323.7 535.3V93.9M446.1 535.3V93.9M568.5 535.3V93.9M690.9 535.3V93.9"/></g></g><g clip-path="url(#a)"><g class="HeightedLegend clickable"><g class="legendMark"><path fill="#34983f" d="M720.35 235.65h10v2.5h-10z"/><text font-size="14.4" x="735.4" y="241.2" fill="#333"><tspan x="735.35" y="241.22">70+ years old</tspan></text></g><g class="legendMark"><path fill="#9ecc8a" d="M720.35 412.15h10v2.5h-10z"/><text font-size="14.4" x="735.4" y="417.7" fill="#333"><tspan x="735.35" y="417.72">50-69 years old</tspan></text></g><g class="legendMark"><path fill="#ffd53e" d="M720.35 490.85h10v2.5h-10z"/><text font-size="14.4" x="735.4" y="496.4" fill="#333"><tspan x="735.35" y="496.42">15-49 years old</tspan></text></g><g class="legendMark"><path fill="#ca2628" d="M720.35 508.05h10v2.5h-10z"/><text font-size="14.4" x="735.4" y="513.6" fill="#333"><tspan x="735.35" y="513.62">5-14 years old</tspan></text></g><g class="legendMark"><path fill="#3360a9" d="M720.35 522.45h10v2.5h-10z"/><text font-size="14.4" x="735.4" y="528" fill="#333"><tspan x="735.35" y="528.02">Under-5s</tspan></text></g></g><g class="Areas"><path d="M79 408.3l122.3 30.8 122.4 25.8 122.4 18.9 24.5 2.5 97.9 8.8 146.9 15.2-.05 25H78.97" fill="#3360a9" fill-opacity=".7" class="World_4-area"/><path d="M79 403.3l122.3 31.2 122.4 26.6 122.4 19.8 24.5 2.6 97.9 9 146.9 15.7v2.1l-146.9-15.2-97.9-8.8-24.5-2.5-122.4-18.9-122.4-25.8L79 408.3" fill="#ca2628" fill-opacity=".7" class="World_1-area"/><path d="M79 374.4l122.3 27.3 122.4 25.8 122.4 20.9 24.5 2.7 97.9 8.8 146.9 16v32.3l-146.9-15.7-97.9-9-24.5-2.6-122.4-19.8-122.4-26.6L79 403.3" fill="#ffd53e" fill-opacity=".7" class="World_2-area"/><path d="M79 269.1l122.3 20.3 122.4 25.8 122.4 22 24.5 4 97.9 6.4 146.9 3.3v125l-146.9-16-97.9-8.8-24.5-2.7-122.4-20.9-122.4-25.8L79 374.4" fill="#9ecc8a" fill-opacity=".7" class="World_3-area"/><path d="M79 93.9l122.3 3 122.4 19.9 122.4 18.4 24.5 4.1 97.9-5 146.9-11.4v228l-146.9-3.3-97.9-6.4-24.5-4-122.4-22-122.4-25.8L79 269.1" fill="#34983f" fill-opacity=".7" class="World_0-area"/><path stroke-linecap="round" d="M79 408.3l122.3 30.8 122.4 25.8 122.4 18.9 24.5 2.5 97.9 8.8 146.9 15.2" stroke="#2B508D" stroke-opacity=".7" stroke-width=".5" fill="none" class="World_4-border"/><path stroke-linecap="round" d="M79 403.3l122.3 31.2 122.4 26.6 122.4 19.8 24.5 2.6 97.9 9 146.9 15.7" stroke="#A92021" stroke-opacity=".7" stroke-width=".5" fill="none" class="World_1-border"/><path stroke-linecap="round" d="M79 374.4l122.3 27.3 122.4 25.8 122.4 20.9 24.5 2.7 97.9 8.8 146.9 16" stroke="#D5B234" stroke-opacity=".7" stroke-width=".5" fill="none" class="World_2-border"/><path stroke-linecap="round" d="M79 269.1l122.3 20.3 122.4 25.8 122.4 22 24.5 4 97.9 6.4 146.9 3.3" stroke="#84AB73" stroke-opacity=".7" stroke-width=".5" fill="none" class="World_3-border"/><path stroke-linecap="round" d="M79 93.9l122.3 3 122.4 19.9 122.4 18.4 24.5 4.1 97.9-5 146.9-11.4" stroke="#2C7F35" stroke-opacity=".7" stroke-width=".5" fill="none" class="World_0-border"/></g></g></g><g class="SourcesFooter" fill="#777"><g class="clickable" fill="#777"><text font-size="12.6" x="15" y="581.6"><tspan x="15" y="581.58">Source: IHME, Global Burden of Disease (GBD)</tspan></text></g><text font-size="12.6" x="595" y="581.6"><tspan x="594.97" y="581.58"><a target="_blank" href="https://ourworldindata.org/smoking/" fill="#777">OurWorldInData.org/smoking/</a> • <a href="http://creativecommons.org/licenses/by-sa/4.0/deed.en_US" target="_blank" fill="#777">CC BY-SA</a></tspan></text></g></g></svg>

<svg xmlns="http://www.w3.org/2000/svg" version="1.1" style="font-family: 'Helvetica Neue', Helvetica, Arial, sans-serif; font-size: 18px; background-color: white; text-rendering: optimizeLegibility; -webkit-font-smoothing: antialiased;" width="850" height="600"><g class="ChartTab"><g class="HeaderView"><g opacity="0.8" transform="translate(770, 15) scale(0.31)"><a xmlns:xlink="http://www.w3.org/1999/xlink" xlink:href="https://ourworldindata.org" target="_blank"><g><rect x="0" y="0" fill="#1B2543" width="211.2" height="130.1"/><rect x="0" y="112.2" fill="#E63912" width="211.2" height="17.9"/><g><rect x="1.2" y="12.3" fill="none" width="210.2" height="99.2"/><path fill="#FFFFFF" d="M37.8,32.2c0,12.7-7.7,19.4-17.1,19.4c-9.7,0-16.6-7.5-16.6-18.7c0-11.7,7.3-19.3,17.1-19.3 C31.3,13.7,37.8,21.3,37.8,32.2z M9.2,32.8c0,7.9,4.3,14.9,11.8,14.9c7.5,0,11.8-6.9,11.8-15.3c0-7.3-3.8-14.9-11.8-14.9 C13.1,17.5,9.2,24.8,9.2,32.8z"/><path fill="#FFFFFF" d="M62.7,43.8c0,2.7,0.1,5.1,0.2,7.2h-4.3l-0.3-4.3h-0.1c-1.3,2.1-4,4.9-8.8,4.9c-4.2,0-9.1-2.3-9.1-11.6 V24.6h4.8v14.6c0,5,1.5,8.4,5.9,8.4c3.2,0,5.5-2.2,6.3-4.4c0.3-0.7,0.4-1.6,0.4-2.5V24.6h4.8V43.8z"/><path fill="#FFFFFF" d="M67.3,32.8c0-3.1-0.1-5.8-0.2-8.2h4.2l0.2,5.2h0.2c1.2-3.5,4.1-5.8,7.3-5.8c0.5,0,0.9,0.1,1.4,0.2v4.5 c-0.5-0.1-1-0.2-1.6-0.2c-3.4,0-5.8,2.6-6.5,6.2c-0.1,0.7-0.2,1.4-0.2,2.2V51h-4.8V32.8z"/><path fill="#FFFFFF" d="M95.4,51l-9.4-36.8h5l4.4,18.6c1.1,4.6,2.1,9.2,2.7,12.7h0.1c0.6-3.7,1.8-8,3-12.8l4.9-18.5h5l4.5,18.7 c1,4.4,2,8.7,2.6,12.6h0.1c0.8-4,1.8-8.1,3-12.7l4.9-18.5h4.9L120.6,51h-5L111,31.9c-1.1-4.7-1.9-8.3-2.4-12h-0.1 c-0.7,3.7-1.5,7.3-2.8,12L100.4,51H95.4z"/><path fill="#FFFFFF" d="M154.9,37.6c0,9.8-6.8,14-13.2,14c-7.2,0-12.7-5.2-12.7-13.6c0-8.8,5.8-14,13.1-14 C149.8,24,154.9,29.5,154.9,37.6z M133.9,37.9c0,5.8,3.3,10.1,8,10.1c4.6,0,8-4.3,8-10.3c0-4.5-2.2-10.1-7.9-10.1 C136.3,27.6,133.9,32.8,133.9,37.9z"/><path fill="#FFFFFF" d="M158.2,32.8c0-3.1-0.1-5.8-0.2-8.2h4.2l0.2,5.2h0.2c1.2-3.5,4.1-5.8,7.3-5.8c0.5,0,0.9,0.1,1.4,0.2v4.5 c-0.5-0.1-1-0.2-1.6-0.2c-3.4,0-5.8,2.6-6.5,6.2c-0.1,0.7-0.2,1.4-0.2,2.2V51h-4.8V32.8z"/><path fill="#FFFFFF" d="M173.5,12.3h4.8V51h-4.8V12.3z"/><path fill="#FFFFFF" d="M206.5,12.3v31.9c0,2.3,0.1,5,0.2,6.8h-4.3l-0.2-4.6H202c-1.5,2.9-4.7,5.2-9,5.2 c-6.4,0-11.3-5.4-11.3-13.4c-0.1-8.8,5.4-14.2,11.9-14.2c4,0,6.8,1.9,8,4h0.1V12.3H206.5z M201.7,35.4c0-0.6-0.1-1.4-0.2-2 c-0.7-3.1-3.3-5.6-6.9-5.6c-5,0-7.9,4.4-7.9,10.2c0,5.3,2.6,9.8,7.8,9.8c3.2,0,6.2-2.1,7.1-5.7c0.2-0.7,0.2-1.3,0.2-2.1V35.4z"/><path fill="#FFFFFF" d="M42.8,64c0.1,1.6-1.1,2.9-3.1,2.9c-1.7,0-2.9-1.3-2.9-2.9c0-1.7,1.3-3,3-3C41.7,61,42.8,62.3,42.8,64z M37.4,97.8V71.4h4.8v26.4H37.4z"/><path fill="#FFFFFF" d="M47.5,78.6c0-2.7-0.1-5-0.2-7.1h4.3l0.3,4.4h0.1c1.3-2.5,4.4-5,8.8-5c3.7,0,9.4,2.2,9.4,11.2v15.8h-4.8 V82.6c0-4.3-1.6-7.8-6.1-7.8c-3.2,0-5.6,2.2-6.5,4.9c-0.2,0.6-0.3,1.4-0.3,2.2v15.9h-4.8V78.6z"/><path fill="#FFFFFF" d="M84,61.6c2.9-0.4,6.3-0.8,10.1-0.8c6.8,0,11.7,1.6,14.9,4.6c3.3,3,5.2,7.3,5.2,13.2c0,6-1.9,10.9-5.3,14.3 c-3.4,3.4-9.1,5.3-16.3,5.3c-3.4,0-6.2-0.2-8.6-0.4V61.6z M88.8,94.1c1.2,0.2,3,0.3,4.8,0.3c10.2,0,15.7-5.7,15.7-15.6 c0.1-8.7-4.9-14.2-14.9-14.2c-2.5,0-4.3,0.2-5.6,0.5V94.1z"/><path fill="#FFFFFF" d="M132.1,97.8l-0.4-3.3h-0.2c-1.5,2.1-4.3,3.9-8.1,3.9c-5.4,0-8.1-3.8-8.1-7.6c0-6.4,5.7-9.9,15.9-9.8v-0.5 c0-2.2-0.6-6.1-6-6.1c-2.5,0-5,0.8-6.9,2l-1.1-3.2c2.2-1.4,5.4-2.3,8.7-2.3c8.1,0,10.1,5.5,10.1,10.8v9.9c0,2.3,0.1,4.5,0.4,6.3 H132.1z M131.4,84.4c-5.3-0.1-11.2,0.8-11.2,5.9c0,3.1,2.1,4.6,4.5,4.6c3.4,0,5.6-2.2,6.4-4.4c0.2-0.5,0.3-1,0.3-1.5V84.4z"/><path fill="#FFFFFF" d="M146.6,63.9v7.6h6.9v3.7h-6.9v14.2c0,3.3,0.9,5.1,3.6,5.1c1.3,0,2.2-0.2,2.8-0.3l0.2,3.6 c-0.9,0.4-2.4,0.7-4.3,0.7c-2.2,0-4-0.7-5.2-2c-1.4-1.4-1.9-3.8-1.9-6.9V75.1h-4.1v-3.7h4.1v-6.3L146.6,63.9z"/><path fill="#FFFFFF" d="M171.4,97.8l-0.4-3.3h-0.2c-1.5,2.1-4.3,3.9-8.1,3.9c-5.4,0-8.1-3.8-8.1-7.6c0-6.4,5.7-9.9,15.9-9.8v-0.5 c0-2.2-0.6-6.1-6-6.1c-2.5,0-5,0.8-6.9,2l-1.1-3.2c2.2-1.4,5.4-2.3,8.7-2.3c8.1,0,10.1,5.5,10.1,10.8v9.9c0,2.3,0.1,4.5,0.4,6.3 H171.4z M170.7,84.4c-5.3-0.1-11.2,0.8-11.2,5.9c0,3.1,2.1,4.6,4.5,4.6c3.4,0,5.6-2.2,6.4-4.4c0.2-0.5,0.3-1,0.3-1.5V84.4z"/></g></g></a></g><a href="https://ourworldindata.org/grapher/secondhand-smoke-deaths-by-age" target="_blank"><text font-size="27.00" x="15.0" y="36.6" fill="#555"><tspan x="15" y="36.6">Secondhand smoke deaths by age, World</tspan></text></a><text font-size="14.40" x="15.0" y="55.5" fill="#666"><tspan x="15" y="55.519999999999996">Annual number of deaths from secondhand smoke (also known as 'passive smoking' which is the inhalation of</tspan><tspan x="15" y="71.36">smoke by those who are not &quot;active&quot; smokers) by age group across both sexes.</tspan></text></g><g class="StackedArea"><defs><clipPath id="boundsClip-108"><rect x="78.968" y="0" width="820" height="925.2"></rect></clipPath></defs><g class="AxisBoxView"><g class="HorizontalAxis"><text x="79" y="556.5" fill="#666" text-anchor="middle" font-size="16.2">1990</text><text x="201.3" y="556.5" fill="#666" text-anchor="middle" font-size="16.2">1995</text><text x="323.7" y="556.5" fill="#666" text-anchor="middle" font-size="16.2">2000</text><text x="446.1" y="556.5" fill="#666" text-anchor="middle" font-size="16.2">2005</text><text x="568.5" y="556.5" fill="#666" text-anchor="middle" font-size="16.2">2010</text><text x="715.4" y="556.5" fill="#666" text-anchor="middle" font-size="16.2">2016</text></g><g class="VerticalAxis"><text x="73.97" y="535.3" fill="#666" dominant-baseline="middle" text-anchor="end" font-size="16.2">0</text><text x="73.97" y="442" fill="#666" dominant-baseline="middle" text-anchor="end" font-size="16.2">200,000</text><text x="73.97" y="348.7" fill="#666" dominant-baseline="middle" text-anchor="end" font-size="16.2">400,000</text><text x="73.97" y="255.4" fill="#666" dominant-baseline="middle" text-anchor="end" font-size="16.2">600,000</text><text x="73.97" y="162" fill="#666" dominant-baseline="middle" text-anchor="end" font-size="16.2">800,000</text></g><g class="AxisGridLines"><line x1="78.97" y1="535.3" x2="715.35" y2="535.3" stroke="#ccc"></line><line x1="78.97" y1="442" x2="715.35" y2="442" stroke="#ddd" stroke-dasharray="3,2"></line><line x1="78.97" y1="348.7" x2="715.35" y2="348.7" stroke="#ddd" stroke-dasharray="3,2"></line><line x1="78.97" y1="255.4" x2="715.35" y2="255.4" stroke="#ddd" stroke-dasharray="3,2"></line><line x1="78.97" y1="162" x2="715.35" y2="162" stroke="#ddd" stroke-dasharray="3,2"></line></g><g class="AxisGridLines"><line x1="79" y1="535.30" x2="79" y2="93.90" stroke="#ddd" stroke-dasharray="3,2"></line><line x1="201.3" y1="535.30" x2="201.3" y2="93.90" stroke="#ddd" stroke-dasharray="3,2"></line><line x1="323.7" y1="535.30" x2="323.7" y2="93.90" stroke="#ddd" stroke-dasharray="3,2"></line><line x1="446.1" y1="535.30" x2="446.1" y2="93.90" stroke="#ddd" stroke-dasharray="3,2"></line><line x1="568.5" y1="535.30" x2="568.5" y2="93.90" stroke="#ddd" stroke-dasharray="3,2"></line><line x1="690.9" y1="535.30" x2="690.9" y2="93.90" stroke="#ddd" stroke-dasharray="3,2"></line></g></g><g clip-path="url(#boundsClip-108)"><g class="HeightedLegend clickable"><g class="legendMark"><rect x="720.352" y="229.70000000000002" width="102.12" height="14.4" fill="#fff" opacity="0"></rect><rect x="720.352" y="235.65" width="10" height="2.5" fill="#34983f"></rect><text font-size="14.40" x="735.4" y="241.2" fill="#333"><tspan x="735.352" y="241.22000000000003">70+ years old</tspan></text></g><g class="legendMark"><rect x="720.352" y="406.2" width="114.64800000000001" height="14.4" fill="#fff" opacity="0"></rect><rect x="720.352" y="412.15" width="10" height="2.5" fill="#9ecc8a"></rect><text font-size="14.40" x="735.4" y="417.7" fill="#333"><tspan x="735.352" y="417.71999999999997">50-69 years old</tspan></text></g><g class="legendMark"><rect x="720.352" y="484.90000000000003" width="114.64800000000001" height="14.4" fill="#fff" opacity="0"></rect><rect x="720.352" y="490.85" width="10" height="2.5" fill="#ffd53e"></rect><text font-size="14.40" x="735.4" y="496.4" fill="#333"><tspan x="735.352" y="496.42">15-49 years old</tspan></text></g><g class="legendMark"><rect x="720.352" y="502.1" width="106.58400000000002" height="14.4" fill="#fff" opacity="0"></rect><rect x="720.352" y="508.05" width="10" height="2.5" fill="#ca2628"></rect><text font-size="14.40" x="735.4" y="513.6" fill="#333"><tspan x="735.352" y="513.62">5-14 years old</tspan></text></g><g class="legendMark"><rect x="720.352" y="516.5" width="74.328" height="14.4" fill="#fff" opacity="0"></rect><rect x="720.352" y="522.45" width="10" height="2.5" fill="#3360a9"></rect><text font-size="14.40" x="735.4" y="528.0" fill="#333"><tspan x="735.352" y="528.02">Under-5s</tspan></text></g></g><g class="Areas"><rect x="78.968" y="93.9" width="636.384" height="441.4000000000001" opacity="0" fill="rgba(255,255,255,0)"></rect><path stroke-linecap="round" d="M79 408.3L201.3 439.1L323.7 464.9L446.1 483.8L470.6 486.3L568.5 495.1L715.4 510.3L715.352 535.3000000000001L78.968 535.3000000000001" fill="#3360a9" fill-opacity="0.7" class="World_4-area"></path><path stroke-linecap="round" d="M79 403.3L201.3 434.5L323.7 461.1L446.1 480.9L470.6 483.5L568.5 492.5L715.4 508.2L715.4 510.3L568.5 495.1L470.6 486.3L446.1 483.8L323.7 464.9L201.3 439.1L79 408.3" fill="#ca2628" fill-opacity="0.7" class="World_1-area"></path><path stroke-linecap="round" d="M79 374.4L201.3 401.7L323.7 427.5L446.1 448.4L470.6 451.1L568.5 459.9L715.4 475.9L715.4 508.2L568.5 492.5L470.6 483.5L446.1 480.9L323.7 461.1L201.3 434.5L79 403.3" fill="#ffd53e" fill-opacity="0.7" class="World_2-area"></path><path stroke-linecap="round" d="M79 269.1L201.3 289.4L323.7 315.2L446.1 337.2L470.6 341.2L568.5 347.6L715.4 350.9L715.4 475.9L568.5 459.9L470.6 451.1L446.1 448.4L323.7 427.5L201.3 401.7L79 374.4" fill="#9ecc8a" fill-opacity="0.7" class="World_3-area"></path><path stroke-linecap="round" d="M79 93.9L201.3 96.9L323.7 116.8L446.1 135.2L470.6 139.3L568.5 134.3L715.4 122.9L715.4 350.9L568.5 347.6L470.6 341.2L446.1 337.2L323.7 315.2L201.3 289.4L79 269.1" fill="#34983f" fill-opacity="0.7" class="World_0-area"></path><path stroke-linecap="round" d="M79 408.3L201.3 439.1L323.7 464.9L446.1 483.8L470.6 486.3L568.5 495.1L715.4 510.3" stroke="rgb(43, 80, 141)" stroke-opacity="0.7" stroke-width="0.5" fill="none" class="World_4-border"></path><path stroke-linecap="round" d="M79 403.3L201.3 434.5L323.7 461.1L446.1 480.9L470.6 483.5L568.5 492.5L715.4 508.2" stroke="rgb(169, 32, 33)" stroke-opacity="0.7" stroke-width="0.5" fill="none" class="World_1-border"></path><path stroke-linecap="round" d="M79 374.4L201.3 401.7L323.7 427.5L446.1 448.4L470.6 451.1L568.5 459.9L715.4 475.9" stroke="rgb(213, 178, 52)" stroke-opacity="0.7" stroke-width="0.5" fill="none" class="World_2-border"></path><path stroke-linecap="round" d="M79 269.1L201.3 289.4L323.7 315.2L446.1 337.2L470.6 341.2L568.5 347.6L715.4 350.9" stroke="rgb(132, 171, 115)" stroke-opacity="0.7" stroke-width="0.5" fill="none" class="World_3-border"></path><path stroke-linecap="round" d="M79 93.9L201.3 96.9L323.7 116.8L446.1 135.2L470.6 139.3L568.5 134.3L715.4 122.9" stroke="rgb(44, 127, 53)" stroke-opacity="0.7" stroke-width="0.5" fill="none" class="World_0-border"></path></g></g></g><g style="fill: #777;" class="SourcesFooter"><g style="fill: #777;" class="clickable"><text font-size="12.60" x="15.0" y="581.6"><tspan x="15" y="581.58">Source: IHME, Global Burden of Disease (GBD)</tspan></text></g><text font-size="12.60" x="595.0" y="581.6"><tspan x="594.97" y="581.58"><a target='_blank' style='fill: #777;' href='https://ourworldindata.org/smoking/'>OurWorldInData.org/smoking/</a> • <a style="fill: #777;" href="http://creativecommons.org/licenses/by-sa/4.0/deed.en_US" target="_blank">CC BY-SA</a></tspan></text></g></g></svg>
